packages/ui/src/lib/icons/svg/script-plus.svg

<svg width="100%" height="100%" viewBox="0 0 16 16" fill="none" xmlns="http://www.w3.org/2000/svg">
<path d="M11.8684 14H12.5C13.6046 14 14.5 13.1046 14.5 12V8M4.5 10V2H7.5" stroke="currentColor" stroke-width="1.5"/>
<path d="M1 10.5H9.99998L9.99998 12C9.99998 13.1046 10.8954 14 12 14H12.5H3C1.89544 14 1.00001 13.1046 1.00001 12L1 10.5Z" stroke="currentColor" stroke-width="1.5"/>
<path d="M12 0L12 8M16 4L8 4" stroke="currentColor" stroke-width="1.5"/>
</svg>

<svg xmlns="http://www.w3.org/2000/svg" fill="none" viewBox="0 0 16 16" width="100%" height="100%"><path stroke="currentColor" stroke-width="1.5" d="M11.868 14h.632a2 2 0 0 0 2-2V8m-10 2V2h3"/><path stroke="currentColor" stroke-width="1.5" d="M1 10.5h9V12a2 2 0 0 0 2 2h.5H3a2 2 0 0 1-2-2zM12 0v8m4-4H8"/></svg>
